X:1
T:Ricercare con obligo del Basso come appare
T:Ricercare con obligo del Basso come appare
T:From 'Fiori Musicali' (1635)
T:Girolamo Frescobaldi (1583 - 1643)
C:Girolamo Frescobaldi (1583 - 1643)
%%score { 1 2 3 } 4
L:1/8
M:4/2
K:C
V:1 treble 
V:2 treble 
V:3 treble 
V:4 treble 
V:1
!ff! z16 | z16 | G8 B8 | c8 A8 | G8 z2 c4 B2 | A4 c4 _B4 A4- | A4 G4 A4 E4 | G6 FE D4 G4 | %8
 z8 z4 C4- | C2 B,2 A,2 C2 B,4 B4- | B2 c2 d2 B2 e2 d2 c2 B2 | c6 BA B8 | z16 | z16 | A8 ^c8 | %15
 d8 B8 | A16 | z16 | A6 G2 ^F2 A2 B2 AG | A4 d2 =c2 B4 z2 c2- |[M:3/1] c2 B2 A2 c2 ^G2 A4 G2 A8- | %21
[M:4/2] A4 z4 ^F2 G2 A2 F2 | ^G2 A4 G2 A4 E2 ^F2 | G2 A2 B4- B4 ^c4 | B8- B4 B4 | %25
 z4 A4- A2 B2 ^c2 A2 | B2 ^c2 B4 c8 | z4 e4- e2 d2 ^c2 e2 | A2 B=c d4- d4 ^c4- | c4 B4 A4 d4- | %30
 d2 c2 B2 d2 G2 A2 B2 AG | ^F2 G2 A4- A2 ^GF G4 | A4 d4- d2 c2 B4- | B4 A4 B6 A2 | %34
 G4 z4 E2 F2 G2 E2 | A2 G4 ^F2 G4 D4 | E4 z4 e2 d2 c2 e2 | A2 B2 c4- c2 BA G4 | z8 z2 F4 G2 | %39
 A2 F2 _B4- B4 A2 G2 | A4 c4- c4 c4 | c16 | z2 d4 c2 _B2 d2 G4 | A6 =B2 c8 | c8 _B2 A2 A4- | %45
 A4 G4 A8 | z16 | z4 _B4 d8 | _e8 c8 | _B4 _e4- e4 d4 | c6 _B2 _A2 G2 A2 BA | G8 z4 F2 G2 | %52
 A2 F2 _B2 A2 G2 FG A4- | A2 GF G4 A6 GF | E4 A4 z8 | z8 z4 A2 =B2 | c2 G2 A4- A4 G2 F2 | %57
 _B6 AG A8 | G8 z8 | c2 B2 A2 c2 F2 G2 A2 B2 | c16 | z8 c2 B2 A2 c2 | G8 c6 BA | G8- G16 || %64
V:2
 C8 E8 | F8 D8 | C4 E4- E2 ^F2 G2 E2 | A2 G2 =F2 E2 F2 C2 F4- | F4 E4 G3 F E2 G2 | C8 D4 F4 | %6
 E2 F4 E2- E2 D4 C2- | C2 G,2 C4- C4 B,4- | B,2 C2 D2 B,2 E4 G4- | G4 ^F4 G8 | %10
 z4 G4- G2 =F2 E2 G2 | C2 D2 E2 ^F2 G4 E4 | A4 z2 ^F2- F2 G2 A2 F2 | B4 G4- G2 ^F2 G2 E2 | %14
 ^F6 G2 A4 A4- | A4 G2 ^F2 ^G2 A4 G2 | A4 E4- E2 D2 ^C2 E2 | ^F4 D4- D4 D4 | D4 ^C4 D8 | ^F8 G8 | %20
[M:3/1] E8 D8 ^C4 E4 |[M:4/2] z4 A,4- A,2 G,2 ^F,2 A,2 | B,2 ^C2 D2 B,2 E8 | E6 ^F2 ^G2 E2 A4- | %24
 A4 ^G2 ^F2 E2 D2 E4 | ^C2 D2 E2 DE ^F8 | z8 z4 E4 | ^G8 A8 | ^F8 E8 | ^F4 F4- F2 G2 A2 F2 | %30
 B4 G4- G8 | z8 D8 | ^F8 =G8 | E8 D8- | D8 C8- | C8 B,8 | C8 z8 | z8 z4 E4- | %38
 E2 D2 C2 E2 A,4 D2 E2 | F4 D4 E2 F4 E2 | F4 E4 A4 G4- | G4 F4 E4 A4 | G4 F4- F4 E4 | %43
 F4 C2 D2 E2 C2 G4- | G4 A4 F4 E4 | D6 E2 F2 D2 F4 | z4 G2 F2 _E2 G2 C4 | D8 B2 A2 G2 B2 | %48
 _E2 F2 G4- G2 G2 _A4 | G16 | z16 | G2 F2 _E2 G2 D8 | C4 D4 _E4 D2 C2 | D4 D2 =E2 F2 C2 D4- | %54
 D4 C4 D4 D2 C2 | _B,2 D2 G,4 A,4 C4 | E4 F4- F4 D4- | D2 C2 D2 E2 F2 C2 F4- | %58
 F4 E4- E2 ^F2 G2 E2 | A4 =F4 z8 | E2 F2 G2 E2 A4 G4 | C4 E4- E4 z4 | C2 D2 E4- E4 F4- | %63
 F4 E2 D2 E16 || %64
V:3
 z16 | z16 | z16 | z16 | z8 z4 C4- | C2 B,2 A,2 C2 F,2 G,2 A,2 =B,2 | C8 F,4 A,4 | E,6 F,2 G,8 | %8
 z4 G,4- G,2 F,2 E,2 G,2 | C,4 C4 z4 G,4 | B,8 C8 | A,8 G,8 | ^F,4 B,4 A,4 z2 D2- | %13
 D2 C2 B,2 D2 G,2 A,2 B,2 ^C2 | D4 ^F,4- F,2 G,2 A,2 F,2 | B,8 E2 D=C B,2 E2 | ^C8 z4 A,4- | %17
 A,2 G,2 ^F,2 A,2 D,2 E,2 F,2 G,2 | A,4 E,4 D,4 G,4 | D4 z4 E,2 ^F,2 G,2 E,2 | %20
[M:3/1] A,2 B,2 C4- C4 B,4 z4 ^C4 |[M:4/2] E8 ^F8 | D8 ^C8 | z16 | z16 | z4 ^C4- C2 B,2 A,2 C2 | %26
 ^G,2 A,4 G,2 A,8 | E2 D2 ^C2 E2 A,6 C2 | D2 =C2 B,2 A,2 ^G,4 A,4 | D8 z8 | %30
 B,2 C2 D2 B,2 E2 D4 ^C2 | D4 ^F,2 G,A, B,8 | A,2 D4 C2 B,4 E4 | C8 D4 G,4 | %34
 z4 G,4- G,2 F,2 E,2 G,2 | C,2 D,2 E,2 D,C, D,4 G,4 | C,4 C4- C2 D2 E2 C2 | F2 ED C2 A,2 E4 E,4 | %38
 G,8 z8 | z16 | z2 A,4 G,2 F,2 A,2 E,4 | A,6 B,2 C2 D2 E2 F2 | D8- D4 C2 _B,2 | A,8 z4 C4 | %44
 E4 F4 D4 C4 | _B,8 F,2 G,2 A,2 F,2 | G,2 A,2 _B,4- B,4 A,4 | _B,8 G,2 A,2 B,2 G,2 | %48
 C6 D2 _E2 C2 F4 | _B,4 G,2 A,2 =B,2 C4 B,2 | C4 _E4- E4 D4- | D4 C4- C2 _B,A, B,4 | %52
 A,4 G,4- G,4 F,4 | _B,8 F,8 | z4 F,2 E,2 D,2 G,2 F,4- | F,4 E,4 F,8 | z4 F,4 A,4 _B,4 | %57
 G,8 F,4 A,2 =B,2 | C2 G,2 C4- C2 B,A, B,2 C2 | A,8- A,4 F,4 | G,2 F,2 E,2 G,2- G,2 F,4 E,D, | %61
 E,2 F,2 G,2 E,2 A,8 | E,4 C2 B,2 A,2 C2 A,2 G,F, | G,4 G,4 C16 || %64
V:4
 z16 | z16 | z16 | z16 |!ff! C,8 E,8 | F,8 D,8 | C,8 z8 | z8 G,,8 | B,,8 C,8 | A,,8 G,,8 | z16 | %11
 z16 | D,8 ^F,8 | G,8 E,8 | D,8 z8 | z16 | A,,8 ^C,8 | D,8 B,,8 | A,,8 z8 | z16 | %20
[M:3/1] z8 z8 A,,8 |[M:4/2] ^C,8 D,8 | B,,8 A,,8 | z16 | E,8 ^G,8 | A,8 ^F,8 | E,8 z8 | z16 | z16 | %29
 D,8 ^F,8 | G,8 E,8 | D,8 z8 | z16 | z8 G,,8 | B,,8 C,8 | A,,8 G,,8 | z16 | z8 C,8 | E,8 F,8 | %39
 D,8 C,8 | z16 | F,8 A,8 | _B,8 G,8 | F,8 z8 | z16 | _B,,8 D,8 | _E,8 C,8 | _B,,8 z8 | z16 | %49
 _E,8 G,8 | _A,8 F,8 | _E,8 z8 | z16 | z8 F,,8 | A,,8 _B,,8 | G,,8 F,,8 | z16 | z16 | C,8 E,8 | %59
 F,8 D,8 | C,16 | C,16- | C,16- | C,24 || %64

